X:452
T:Troop - Trust to Luck
S:Bruce & Emmett's Drummers and Fifers Guide (1862), p. 45
M:3/4
L:1/8
K:D
%%MIDI program 72
%%MIDI transpose 8
%%MIDI ratio 3 1
GA|B2z2Bc|d2c2dg|b2f2g2|d2z2gf|e2c2e2|d2B2G2|B2A2G2|d2z2GA|
B2z2Bc|d2z2df|efg2^g2|a4d2|dbafge|d2B2G2|B2zcBA|G2z2:|
B2|B2e3f|g2e3b|b2f2g2|e2z2fg|a4ba|g2f2e2|b2f2g2|e2z2GA|
B2z2Bc|d2z2df|efg2^g2|a2z2d2|dbafge|d2B2G2|B2zcBA|G2z2:|
